rospo-icon-theme-classic-common/64x64/apps/com.github.allen-b1.news.svg

<svg height="64" width="64" xmlns="http://www.w3.org/2000/svg"><rect height="56" opacity=".2" rx="2.8" width="56" x="4" y="5"/><rect fill="#c93e5f" height="56" rx="2.8" width="56" x="4" y="4"/><path d="m6.8008 4c-1.5512 0-2.8008 1.2496-2.8008 2.8008v1c0-1.5512 1.2496-2.8008 2.8008-2.8008h50.3982c1.551 0 2.801 1.2496 2.801 2.8008v-1c0-1.5512-1.25-2.8008-2.801-2.8008z" fill="#fff" opacity=".1"/><path d="m10 30v2c0 1.1.906 2 2 2 9.942 0 18 8.058 18 18 0 1.1.906 2 2 2h2v-2c0-12.15-9.85-22-22-22zm0 8v2c0 1.1.906 2 2 2 5.522 0 10 4.478 10 10 0 1.1.906 2 2 2h2v-2c0-7.732-6.268-14-14-14zm4 8c-2.21 0-4 1.79-4 4s1.79 4 4 4 4-1.79 4-4-1.79-4-4-4z" fill="#fff"/></svg>

<svg xmlns="http://www.w3.org/2000/svg" width="64" height="64" version="1">
 <rect style="opacity:0.2" width="56" height="56" x="4" y="5" rx="2.8" ry="2.8"/>
 <rect style="fill:#c93e5f" width="56" height="56" x="4" y="4" rx="2.8" ry="2.8"/>
 <path style="opacity:0.1;fill:#ffffff" d="M 6.8008 4 C 5.2496 4 4 5.2496 4 6.8008 L 4 7.8008 C 4 6.2496 5.2496 5 6.8008 5 L 57.199 5 C 58.75 5 60 6.2496 60 7.8008 L 60 6.8008 C 60 5.2496 58.75 4 57.199 4 L 6.8008 4 z"/>
 <path style="fill:#ffffff" d="M 10,30 V 32 C 10,33.1 10.906,34 12,34 21.942,34 30,42.058 30,52 30,53.1 30.906,54 32,54 H 34 V 52 C 34,39.85 24.15,30 12,30 Z M 10,38 V 40 C 10,41.1 10.906,42 12,42 17.522,42 22,46.478 22,52 22,53.1 22.906,54 24,54 H 26 V 52 C 26,44.268 19.732,38 12,38 Z M 14,46 C 11.79,46 10,47.79 10,50 10,52.21 11.79,54 14,54 16.21,54 18,52.21 18,50 18,47.79 16.21,46 14,46 Z"/>
</svg>
